F[BALLADE
CUT[Die Schlangenkoechin
    'Oh, where have you been this livelong day,]
CNR[My little wee croodin' doo?']
REG[Westeuropa, England]
SRC[4, S. 206
    1950 gedruckt]
KEY[Q2079F 16  D 6/8]
MEL[-5_  1_1_1_1_3b_4_  5__5_5__
    5_  6b_6b_6b_+1__6b_  5__.^__
    +1_  5__+1_5__4_  3b__3b21__
    6b_  5__4_3b_4_2_  1__.^__ //] >>
FCT[Ballade, Mord; Reigen - Tanz, antiphonal]
CMT[Englische Fassung der Ballade.
    Zweite und vierte Zeile = Refrain.]
